X: 1
T: Pepin Arsenault
M: 4/4
L: 1/8
R: reel
K: Gdor
Ac | dGGG dcd^f | g^fgd =fcAF | dGGG dcdf | AFcA GABc |
dGGG dcd^f | g^fgd =fcAF | dGGG dcdf | AFcA G3a |
bggg bgde | fefc AFfa | bggg bgde | fdcA DGG2 |
bggg bgde | fefc AFAc | BGGG AGGF | DGGA G3z|
